X:20
T:Menuette
R:Menuett
O:Östergötland
B:Magnus Juringius notbok
N:Smus MMD1 bild 17
M:3/4
L:1/8
K:D
V:1
D3 (G/2F/2)(ED) | A3 (G/2F/2)(ED) | B2 (B/2d/2)(c/2d/2) (e/2d/2)(c/2B/2) | TB2 A4 | 
G4 EG | FGABcd | (d/2e/2)(f/2e/2) dA (G/2F/2)(E/2D/2) | AA, A,4 ::
EE z E FG | FF z F GA | BB z B cd | ((3dcB) A4 | 
(g/2a/2)(b/2g/2) ee (d/2c/2)(B/2A/2) | dfecdA | ((3BAG) F2 E2 | {E}D6 :|
V:2
D/2A/2F/2A/2 D/2A/2F/2A/2  D/2A/2F/2A/2 | D/2A/2F/2A/2  D/2A/2F/2A/2 

